X: 108
T:The Crib Of Perches(m)
M:4/4
L:1/8
S:Matt Cranitch (fiddle)
R:Reel
D:Irish Fiddle Book
Z:Mike Casey
K:G
A3 B AGED | (3EFG AB cBcA | G2 EG CDEG |
cAGc AG (3EFG |A2 AB AGFD | (3EFG AB c3 c|
dged dcAB | cAGE ED D2 ::
K:D
df~f2 af~f2 | defd edcA | (3Bcd ef gece |
gecA GABc |df~f2 af~f2 | defd  edcA |
(3Bcd ec d2 cB | AFGE FD D2:|
% Output from ABC2Win  Version 2.1 i on 18/02/2003
